dist/svgs/unicons/line/server-alt.svg

<svg xmlns="http://www.w3.org/2000/svg" viewBox="0 0 24 24"><path d="M8 17a1 1 0 101 1 1 1 0 00-1-1zm0-6a1 1 0 101 1 1 1 0 00-1-1zm0-6a1 1 0 101 1 1 1 0 00-1-1zm12 0a3 3 0 00-3-3H7a3 3 0 00-3 3v2a3 3 0 00.78 2A3 3 0 004 11v2a3 3 0 00.78 2A3 3 0 004 17v2a3 3 0 003 3h10a3 3 0 003-3v-2a3 3 0 00-.78-2 3 3 0 00.78-2v-2a3 3 0 00-.78-2A3 3 0 0020 7zm-2 14a1 1 0 01-1 1H7a1 1 0 01-1-1v-2a1 1 0 011-1h10a1 1 0 011 1zm0-6a1 1 0 01-1 1H7a1 1 0 01-1-1v-2a1 1 0 011-1h10a1 1 0 011 1zm0-6a1 1 0 01-1 1H7a1 1 0 01-1-1V5a1 1 0 011-1h10a1 1 0 011 1z"/></svg>

<svg xmlns="http://www.w3.org/2000/svg" viewBox="0 0 24 24"><path d="M8,17a1,1,0,1,0,1,1A1,1,0,0,0,8,17Zm0-6a1,1,0,1,0,1,1A1,1,0,0,0,8,11ZM8,5A1,1,0,1,0,9,6,1,1,0,0,0,8,5ZM20,5a3,3,0,0,0-3-3H7A3,3,0,0,0,4,5V7a3,3,0,0,0,.78,2A3,3,0,0,0,4,11v2a3,3,0,0,0,.78,2A3,3,0,0,0,4,17v2a3,3,0,0,0,3,3H17a3,3,0,0,0,3-3V17a3,3,0,0,0-.78-2A3,3,0,0,0,20,13V11a3,3,0,0,0-.78-2A3,3,0,0,0,20,7ZM18,19a1,1,0,0,1-1,1H7a1,1,0,0,1-1-1V17a1,1,0,0,1,1-1H17a1,1,0,0,1,1,1Zm0-6a1,1,0,0,1-1,1H7a1,1,0,0,1-1-1V11a1,1,0,0,1,1-1H17a1,1,0,0,1,1,1Zm0-6a1,1,0,0,1-1,1H7A1,1,0,0,1,6,7V5A1,1,0,0,1,7,4H17a1,1,0,0,1,1,1Z"/></svg>
